src/Assets/icons/facebook-light.svg

<svg width="16" height="16" viewBox="0 0 16 16" fill="none" xmlns="http://www.w3.org/2000/svg">
<path d="M16 8C16 3.58172 12.4183 0 8 0C3.58172 0 0 3.58172 0 8C0 11.993 2.92547 15.3027 6.75 15.9028V10.3125H4.71875V8H6.75V6.2375C6.75 4.2325 7.94438 3.125 9.77172 3.125C10.6467 3.125 11.5625 3.28125 11.5625 3.28125V5.25H10.5538C9.56 5.25 9.25 5.86672 9.25 6.5V8H11.4688L11.1141 10.3125H9.25V15.9028C13.0745 15.3027 16 11.993 16 8Z" fill="white"/>
</svg>

<svg xmlns="http://www.w3.org/2000/svg" width="16" height="16" fill="none" xmlns:v="https://vecta.io/nano"><path d="M16 8A8 8 0 1 0 0 8c0 3.993 2.925 7.303 6.75 7.903v-5.59H4.719V8H6.75V6.238c0-2.005 1.194-3.112 3.022-3.112a12.31 12.31 0 0 1 1.791.156V5.25h-1.009c-.994 0-1.304.617-1.304 1.25V8h2.219l-.355 2.313H9.25v5.59C13.075 15.303 16 11.993 16 8z" fill="#fff"/></svg>
